lib/flags/mv-maldives.svg

<svg xmlns="http://www.w3.org/2000/svg" fill="none" aria-hidden="true" viewBox="0 0 42 30"><g id="Country=MV - Maldives, Size=sm (36x24)" filter="url(#filter0_dd_91_26295)"><g clip-path="url(#clip0_91_26295)"><g id="flag"><mask id="mask0_91_26295" width="36" height="24" x="3" y="2" maskUnits="userSpaceOnUse" style="mask-type:alpha"><rect id="mask" width="36" height="24" x="3" y="2" fill="white"/></mask><g mask="url(#mask0_91_26295)"><g id="contents"><path id="background" fill="#C51918" fill-rule="evenodd" d="M3 2H39V24C39 25.1046 38.1046 26 37 26H5C3.89543 26 3 25.1046 3 24V2Z" clip-rule="evenodd"/><path id="background_2" fill="#C51918" fill-rule="evenodd" d="M3 2H39V26H3V2Z" clip-rule="evenodd"/><g id="top"><path fill="#579D20" fill-rule="evenodd" d="M9.75 8H32.25V20H9.75V8Z" clip-rule="evenodd"/><path stroke="#B6EB9A" stroke-opacity="0.238111" stroke-width="2" d="M10.75 9H31.25V19H10.75V9Z"/></g><mask id="mask1_91_26295" width="24" height="12" x="9" y="8" maskUnits="userSpaceOnUse" style="mask-type:alpha"><g id="top_2"><path fill="white" fill-rule="evenodd" d="M9.75 8H32.25V20H9.75V8Z" clip-rule="evenodd"/><path stroke="white" stroke-width="2" d="M10.75 9H31.25V19H10.75V9Z"/></g></mask><g mask="url(#mask1_91_26295)"><path id="Shape sp-1695-0" fill="#F9FAFA" fill-rule="evenodd" d="M21.0372 14.4624C21.018 17.5281 23.7332 19.1626 23.7332 19.1626C20.635 19.486 18.5737 16.9894 18.5737 14.4923C18.5737 11.9952 21.3835 9.93242 23.7332 9.00098C23.7332 9.00098 21.0563 11.3967 21.0372 14.4624Z" clip-rule="evenodd"/></g></g></g></g></g></g><defs><filter id="filter0_dd_91_26295" width="42" height="30" x="0" y="0" color-interpolation-filters="sRGB" filterUnits="userSpaceOnUse"><feFlood flood-opacity="0" result="BackgroundImageFix"/><feColorMatrix in="SourceAlpha" result="hardAlpha" values="0 0 0 0 0 0 0 0 0 0 0 0 0 0 0 0 0 0 127 0"/><feOffset dy="1"/><feGaussianBlur stdDeviation="1"/><feColorMatrix values="0 0 0 0 0.0627451 0 0 0 0 0.0941176 0 0 0 0 0.156863 0 0 0 0.06 0"/><feBlend in2="BackgroundImageFix" result="effect1_dropShadow_91_26295"/><feColorMatrix in="SourceAlpha" result="hardAlpha" values="0 0 0 0 0 0 0 0 0 0 0 0 0 0 0 0 0 0 127 0"/><feOffset dy="1"/><feGaussianBlur stdDeviation="1.5"/><feColorMatrix values="0 0 0 0 0.0627451 0 0 0 0 0.0941176 0 0 0 0 0.156863 0 0 0 0.1 0"/><feBlend in2="effect1_dropShadow_91_26295" result="effect2_dropShadow_91_26295"/><feBlend in="SourceGraphic" in2="effect2_dropShadow_91_26295" result="shape"/></filter><clipPath id="clip0_91_26295"><rect width="36" height="24" x="3" y="2" fill="white" rx="2"/></clipPath></defs></svg>

<svg xmlns="http://www.w3.org/2000/svg" fill="none" aria-hidden="true" viewBox="0 0 42 30"><g filter="url(#a)"><g clip-path="url(#b)"><mask id="c" width="36" height="24" x="3" y="2" maskUnits="userSpaceOnUse" style="mask-type:alpha"><path fill="#fff" d="M3 2h36v24H3z"/></mask><g mask="url(#c)"><path fill="#C51918" fill-rule="evenodd" d="M3 2h36v22a2 2 0 0 1-2 2H5a2 2 0 0 1-2-2V2Z" clip-rule="evenodd"/><path fill="#C51918" fill-rule="evenodd" d="M3 2h36v24H3V2Z" clip-rule="evenodd"/><path fill="#579D20" fill-rule="evenodd" d="M9.75 8h22.5v12H9.75V8Z" clip-rule="evenodd"/><path stroke="#B6EB9A" stroke-opacity=".238" stroke-width="2" d="M10.75 9h20.5v10h-20.5V9Z"/><mask id="d" width="24" height="12" x="9" y="8" maskUnits="userSpaceOnUse" style="mask-type:alpha"><path fill="#fff" fill-rule="evenodd" d="M9.75 8h22.5v12H9.75V8Z" clip-rule="evenodd"/><path stroke="#fff" stroke-width="2" d="M10.75 9h20.5v10h-20.5V9Z"/></mask><g mask="url(#d)"><path fill="#F9FAFA" fill-rule="evenodd" d="M21.037 14.462c-.019 3.066 2.696 4.7 2.696 4.7-3.098.324-5.16-2.173-5.16-4.67s2.81-4.56 5.16-5.491c0 0-2.677 2.396-2.696 5.461Z" clip-rule="evenodd"/></g></g></g></g><defs><clipPath id="b"><rect width="36" height="24" x="3" y="2" fill="#fff" rx="2"/></clipPath><filter id="a" width="42" height="30" x="0" y="0" color-interpolation-filters="sRGB" filterUnits="userSpaceOnUse"><feFlood flood-opacity="0" result="BackgroundImageFix"/><feColorMatrix in="SourceAlpha" result="hardAlpha" values="0 0 0 0 0 0 0 0 0 0 0 0 0 0 0 0 0 0 127 0"/><feOffset dy="1"/><feGaussianBlur stdDeviation="1"/><feColorMatrix values="0 0 0 0 0.0627451 0 0 0 0 0.0941176 0 0 0 0 0.156863 0 0 0 0.06 0"/><feBlend in2="BackgroundImageFix" result="effect1_dropShadow_91_26295"/><feColorMatrix in="SourceAlpha" result="hardAlpha" values="0 0 0 0 0 0 0 0 0 0 0 0 0 0 0 0 0 0 127 0"/><feOffset dy="1"/><feGaussianBlur stdDeviation="1.5"/><feColorMatrix values="0 0 0 0 0.0627451 0 0 0 0 0.0941176 0 0 0 0 0.156863 0 0 0 0.1 0"/><feBlend in2="effect1_dropShadow_91_26295" result="effect2_dropShadow_91_26295"/><feBlend in="SourceGraphic" in2="effect2_dropShadow_91_26295" result="shape"/></filter></defs></svg>
